packages/ffe-icons/icons/filled/md/lab_panel.svg

<svg xmlns="http://www.w3.org/2000/svg" height="24" viewBox="0 -960 960 960" width="24"><path d="M132.309-140.001q-29.923 0-51.115-21.193Q60-182.386 60-212.309v-175.382q0-29.923 21.193-51.115 21.192-21.193 51.115-21.193h7.692v-179.077h-3.846q-16.077-6.769-26.115-20.807-10.039-14.038-10.039-33.192v-45.385q0-25.307 17.731-43.037 17.73-17.731 43.037-17.731h198.462q25.307 0 43.037 17.731 17.731 17.73 17.731 43.037v45.385q0 19.154-10.039 33.192-10.038 14.038-26.115 20.807h-3.846v179.077h200.002v-179.077h-3.846q-16.077-6.769-26.115-20.807-10.039-14.038-10.039-33.192v-45.385q0-25.307 17.731-43.037 17.73-17.731 43.037-17.731h198.462q25.307 0 43.037 17.731 17.731 17.73 17.731 43.037v45.385q0 19.154-10.039 33.192-10.038 14.038-26.115 20.807h-3.846v179.077h7.692q29.923 0 51.115 21.193 21.193 21.192 21.193 51.115v175.382q0 29.923-21.193 51.115-21.192 21.193-51.115 21.193H132.309ZM640-459.999h120v-172.308H640v172.308Zm-440 0h120v-172.308H200v172.308Z"/></svg>

<svg xmlns="http://www.w3.org/2000/svg" height="24" viewBox="0 -960 960 960" width="24"><path d="M132.31-140q-29.92 0-51.12-21.19Q60-182.39 60-212.31v-175.38q0-29.92 21.19-51.12Q102.39-460 132.31-460H140v-179.08h-3.84q-16.08-6.76-26.12-20.8Q100-673.92 100-693.07v-45.39q0-25.31 17.73-43.04t43.04-17.73h198.46q25.31 0 43.04 17.73T420-738.46v45.39q0 19.15-10.04 33.19t-26.12 20.8H380V-460h200v-179.08h-3.84q-16.08-6.76-26.12-20.8Q540-673.92 540-693.07v-45.39q0-25.31 17.73-43.04t43.04-17.73h198.46q25.31 0 43.04 17.73T860-738.46v45.39q0 19.15-10.04 33.19t-26.12 20.8H820V-460h7.69q29.92 0 51.12 21.19Q900-417.61 900-387.69v175.38q0 29.92-21.19 51.12Q857.61-140 827.69-140H132.31ZM640-460h120v-172.31H640V-460Zm-440 0h120v-172.31H200V-460Z"/></svg>
